X: 1
T: Jer O'Connell's
M: 2/4
L: 1/8
R: polka
K: Dmaj
|:AD ED|FA dc/d/|cA B/A/G|EF GF/G/|
AD ED|FA dc/d/|cA GE|F/E/D D2 :|
|:Ad de|fg/f/ ed|cA AB|B/c/d ef/e/|
Ad de|fd e/f/e/d/|cA GE|ED D2 :|
